X:1
T:Title
%%score 1 { 2 | 3 }
L:1/8
Q:1/4=117
M:4/4
K:Db
V:1 treble nm="Grand Piano, Soprano"
V:2 bass nm="Choir Pad, Trocad�ro, 11.11.11.11"
V:3 bass 
V:1
 [FA]2 [FA]4 [Fd]2 | [GB]2 [FA]4 [DF]2 | [DF]2 [DF]2 [CE]2 [CA]2 | [EG]2 [DF]6 | A2 [GB]4 [GB]2 | %5
w: By~Robert~C.~Winthrop,~1896 * *|||||
 [GB]2 [FA]4 [DF]2 | [DF]2 [DF]4 [EG]2 | [DF]2 [CE]6 | [GA]2 [FA]4 [Fd]2 | [GB]2 [FA]4 [DF]2 | %10
w: |||||
 [DF]2 [DF]4 [=DB]2 | [=DA]2 [EG]6 | [DA]2 [GB]4 [Ac]2 | [Ad]2 [Fd]4 [FA]2 | %14
w: ||||
 [DF]2 [DF]2 [CE]2 [CA]2 | [A,C]2 [A,D]6- | [A,D]2 z2 z4 |] %17
w: |||
V:2
 A,2 A,4 A,2 | D2 D4 A,2 | A,2 A,4 E,2 | A,2 A,6 | D2 D4 D2 | D2 D4[K:bass] A,2 | A,2 A,4 A,2 | %7
 A,2 A,6 | A,2 A,4 A,2 | D2 D4 A,2 | A,2 B,4 F,2 | B,2 B,6 | A,2 D4 A,2 | A,2 A,4 D2 | %14
 A,2 A,4 A,2 | G,2 F,6- | F,2 z2 z4 |] %17
V:3
 D,2 D,4 D,2 | D,2 D,4 D,2 | D,2 A,,4 A,,2 | A,,2 D,6 | F,2 G,4 G,,2 | B,,2 D,4 D,2 | D,2 D,4 C,2 | %7
 D,2 A,,6 | A,,2 D,4 D,2 | D,2 D,4 D,2 | D,2 B,,4 B,,2 | B,,2 E,6 | F,2 G,4 G,2 | F,2 D,4 D,2 | %14
 F,2 z2 z2 A,,2 | A,,2 D,6- | D,2 z2 z4 |] %17

